!!!COM:	Anonymous
!!!OTL:	Sil vous plaist bien que je vous tiegne
!!!AGN:	Song; Chanson
!!!SCT:	Ano3093, Bus3078
!!!SCA:	Ano3093, Bus3078
!!!SMS1:	Dijon Chansonnier
!!!SMS2:	Nivelle Chansonnier
!!!voices:	3
**kern	**kern	**kern
*staff3	*staff2	*staff1
*Ivox	*Ivox	*Ivox
*I"Contra	*I"Tenor	*I"Superius
*I'C	*I'T	*I'S
*>[A,B,B1,B,B2]	*>[A,B,B1,B,B2]	*>[A,B,B1,B,B2]
*>A	*>A	*>A
*clefGv2	*clefGv2	*clefG2
*k[b-]	*k[b-]	*k[b-]
*M2/1	*M2/1	*M2/1
*met(C)	*met(C)	*met(C)
=1-	=1-	=1-
!!LO:TX:Z=12:t=Virelai
1.G	1.g	1.g
2d	2f	2a
=2	=2	=2
2B-	2g	2b-
1.A	2.a	2.cc
.	4g	4b-
.	4f	4a
.	4e	4g
=3	=3	=3
1d	1f	1a
1G	[1g	1g
=4	=4	=4
1r	2g]	1.b-
.	1d	.
1E	.	.
.	2c	4a
.	.	4g
=5	=5	=5
0D	2d	1f
.	4c	.
.	4B-	.
.	1A	2r
.	.	2f
=6	=6	=6
2r	2G	2.g
2G	2B-	.
.	.	4f
2A	2c	2e
2B-	2d	[2d
=7	=7	=7
1G	2B-	2d]
.	4A	4c
.	4G	4B-
1D	1F#i	1A
=8	=8	=8
2G	1r	1G
2.B-	.	.
.	1G	1r
4c	.	.
2d	.	.
=9	=9	=9
2.G	1B-	1d
4B-	.	.
1A	1c	1e
=10	=10	=10
1D	1A	1f
1E	1G	[1g
=11	=11	=11
0D	0A	2g]
.	.	4f
.	.	4e
.	.	4f
.	.	4e
.	.	4d
.	.	4c
=12	=12	=12
1d	0G	1B-
1r	.	1b-
=13	=13	=13
1G	2r	1b-
.	1d	.
1F	.	1a
.	2c	.
=14	=14	=14
2G	2.B-	2.g
2.d	.	.
.	4A	4a
.	2G	2b-
4e	.	.
[2f	[2F	[2cc
=15	=15	=15
4f]	4F]	4cc]
4e	4G	4b-
1d	2B-	4a
.	.	4g
.	1A	2.f#i
2c	.	.
.	.	4e
=16	=16	=16
2d	1G	0g
2.B-	.	.
.	1r	.
4A	.	.
[2G	.	.
=17	=17	=17
2G]	1B-	0r
4F	.	.
4E	.	.
2F	2A	.
2A	2c	.
=18	=18	=18
2G	2B-	1b-
4F	4A	.
4E	4G	.
2D	1F	2a
2r	.	2cc
=19	=19	=19
1E	1G	2b-
.	.	4a
.	.	4g
2D	1A	1f
2F	.	.
=20	=20	=20
1E	2B-	1g
.	1c	.
1F	.	1a
.	2A	.
=21	=21	=21
1G	2G	2.b-
.	1d	.
.	.	4a
1r	.	2b-
.	2c	[2cc
=22	=22	=22
3%2.FV	1A	2cc]
.	.	1a
3%2.GZ	1B-	.
.	.	2g
=23	=23	=23
3DV	1A	1a
3E	.	.
[3FZ	.	.
3F]V	1r	1cc
3E	.	.
3FZ	.	.
=24	=24	=24
3%2.GV	1r	1b-
3F	1c	1a
3%2AZ	.	.
=25	=25	=25
3B-V	1B-	1g
3%2GZ	.	.
3%2F#iV	1A	1cc
3EZ	.	.
=26	=26	=26
1G	1G	1.b-
2r	[1d	.
2G	.	4a
.	.	4g
=27	=27	=27
2D	2d]	4f
.	.	4g
2F	2c	4a
.	.	4b-
2E	2e	2cc
[2G	[2d	[2b-
=28	=28	=28
4G]	4d]	4b-]
4E	4c	4a
2G	2B-	1g
1D	1A	.
.	.	2f#i
=29	=29	=29
2d	1.G	2g
2.B-	.	2d
.	.	4e
4A	.	4d
2G	2E	4c
.	.	4B-
=30	=30	=30
2D	2F	1A
4E	2.c	.
2F	.	.
.	.	2r
4G	4B-	.
2A	2c	2a
=31	=31	=31
2G	2d	2b-
1E-	2.e-i	2.cc
.	4d	4b-
[2F	4c	4a
.	4B-	4g
=32	=32	=32
2F]	2A	2f#i
2G	2G	2e
1D	1A	1f#i
=33	=33	=33
0dl	0Gl	0gl
!!LO:LB:i:g=z
=34||!|:	=34||!|:	=34||!|:
*>B	*>B	*>B
*clefGv2	*clefGv2	*clefG2
*k[b-]	*k[b-]	*k[b-]
*M2/1	*M2/1	*M2/1
*met(C|)	*met(C|)	*met(C|)
!!section: Car que je sceusse vivre ainsi
!!!OMD: Car que je sceusse vivre ainsi
0d	0G	0b-
=35	=35	=35
0G	1d	1b-
.	1e	1b-
=36	=36	=36
0D	0f	0a
=37	=37	=37
1E-	1e-i	1g
[1B-	1d	[1f
=38	=38	=38
2B-]	0B-	1f]
2A	.	.
1G	.	[1b-
=39	=39	=39
0F	0c	1b-]
.	.	1a
=40	=40	=40
1r	0B-	1b-
[1f	.	2a
.	.	[2g
=41	=41	=41
2f]	1r	2g]
2e	.	4f
.	.	4e
2d	1B-	1d
4c	.	.
4B-	.	.
=42	=42	=42
0A	1c	1.e
.	1c	.
.	.	2d
=43	=43	=43
0B-	1B-	1d
.	1G	1b-
=44	=44	=44
0F	1A	1cc
.	1A	1cc
=45	=45	=45
0G	1G	1b-
.	1B-	1g
=46	=46	=46
0F	1c	1a
.	1d	1a
=47	=47	=47
1E-i	1e-i	1g
1G	[1d	[1b-
=48	=48	=48
1r	2d]	2b-]
.	2c	2a
1d	1B-	[1g
=49	=49	=49
2c	0A	1g]
1c	.	.
.	.	1f#i
4B-	.	.
4A	.	.
!!LO:REP:start=1
=50	=50	=50
*>B1	*>B1	*>B1
2B-	1G	2.g
2d	.	.
.	.	4e
2c	2A	2f
4B-	[2B-	[2d
4A	.	.
=51	=51	=51
1G	2B-]	2d]
.	4A	4c
.	4G	4B-
1DN	1F#iN	1AN
!!LO:REP:end=1
!!LO:REP:start=2
=52:|!	=52:|!	=52:|!
*>B2	*>B2	*>B2
2B-	1G	2.g
2d	.	.
.	.	4e
2c	2A	2f
4B-	[2B-	[2d
4A	.	.
!!LO:REP:open=2
=53	=53	=53
1G	2B-]	2d]
.	4A	4c
.	4G	4B-
1D	[1F	1A
=54	=54	=54
1.F	2F]	2r
.	1c	1a
[2G	4B-	4g
.	4A	4a
=55	=55	=55
2G]	2G	2b-
1.F	2.A	1cc
.	4B-	.
.	2c	4b-
.	.	4a
=56	=56	=56
0G	2B-	2g
.	2.d	2.b-
.	4c	4a
.	[2d	[2b-
=57	=57	=57
0D	4d]	2b-]
.	4c	.
.	2B-	4a
.	.	4g
.	1A	2.f#i
.	.	4e
=58	=58	=58
0dl	0Gl	0gl
==	==	==
*-	*-	*-
!!!RDF**kern: l=long note in original notation
!!!RDF**kern: i=editorial accidental
!!!RDF**kern: V=start of tuplet marker
!!!RDF**kern: Z=end of tuplet marker
!!!RDF**kern: N=signum congruentiae
!!!ENC:	Chris Gage 06-29-2015
!!!END:	2016/04/16/
!!!EED:	Jesse Rodin
!!!EEV:	2016/06/01/
!!!ONB:	Translated from MusicXML and edited on 2016/06/01/ by Craig Sapp
!!muse2ps: C^@{COM}\nSources: @{SMS1}; @{SMS2}^v115,115,150Q16c80
!!attribution-level@Bus: 4 (questionable)
